X: 16619
T: Handsome Young Maidens, The
R: jig
M: 6/8
K: Amajor
|:g|aed cdB|Ace aga|bee dee|bee bag|
aed cdB|Ace aga|bee dBG|BAG A2:|
|:B|c2 A EAc|d2 f fed|ece aec|B2 f fed|
[1 c2 A EAc|d2 f fed|e2 e cde|fec A2:|
[2 c2 A EAc|d2 f fed|~e2 e fef|gfg efg||

